communes/5485.svg

<?xml version="1.0" encoding="UTF-8"?>
<svg version="1.0" viewBox="0 0 603 763" xmlns="http://www.w3.org/2000/svg" xmlns:cc="http://creativecommons.org/ns#" xmlns:dc="http://purl.org/dc/elements/1.1/" xmlns:rdf="http://www.w3.org/1999/02/22-rdf-syntax-ns#" xmlns:xlink="http://www.w3.org/1999/xlink">
<metadata>
<rdf:RDF>
<cc:Work rdf:about="">
<dc:format>image/svg+xml</dc:format>
<dc:type rdf:resource="http://purl.org/dc/dcmitype/StillImage"/>
<dc:date>07-AUG-2006</dc:date>
<dc:creator>
<cc:Agent>
<dc:title>Jérôme BLUM (wagner51)</dc:title>
</cc:Agent>
</dc:creator>
<cc:license rdf:resource="http://creativecommons.org/licenses/GPL/2.0/"/>
<dc:coverage/>
<dc:description>Gabarit pour le Projet:Blasons de WIkipédia</dc:description>
<dc:subject>
<rdf:Bag>
<rdf:li>blason suisse modèle gabarit projet blasons</rdf:li>
</rdf:Bag>
</dc:subject>
<dc:language>fr</dc:language>
<dc:title>Gabrit d'un blason suisse</dc:title>
</cc:Work>
<cc:License rdf:about="http://creativecommons.org/licenses/GPL/2.0/">
<cc:permits rdf:resource="http://web.resource.org/cc/Reproduction"/>
<cc:permits rdf:resource="http://web.resource.org/cc/Distribution"/>
<cc:requires rdf:resource="http://web.resource.org/cc/Notice"/>
<cc:permits rdf:resource="http://web.resource.org/cc/DerivativeWorks"/>
<cc:requires rdf:resource="http://web.resource.org/cc/ShareAlike"/>
<cc:requires rdf:resource="http://web.resource.org/cc/SourceCode"/>
</cc:License>
</rdf:RDF>
</metadata>
<defs>
<radialGradient id="a" cx="858.04" cy="579.93" r="300" gradientTransform="matrix(1.215 1.5316e-24 1.4647e-23 1.2667 -839.19 -490.49)" gradientUnits="userSpaceOnUse">
<stop stop-color="#fff" stop-opacity=".31373" offset="0"/>
<stop stop-color="#fff" stop-opacity=".25098" offset=".19"/>
<stop stop-color="#6b6b6b" stop-opacity=".12549" offset=".6"/>
<stop stop-opacity=".12549" offset="1"/>
</radialGradient>
</defs>
<desc>Coat of Arms of Canton of Freiburg (Fribourg)</desc>
<g>
<path d="m1.5 1.5v458.87c0 166.31 134.31 301.13 300 301.13 165.69 0 300-134.82 300-301.13v-458.87h-600z" fill="#fff"/>
<path d="m426.84 611.88c-29.526 0-57.121 25.91-84.909 45.623-27.787 19.713-40.429 5.678-40.429 5.678s-12.638 14.035-40.426-5.678-55.383-45.623-84.909-45.623c-24.079 0-51.581 19.01-51.581 57.029 0 9.104 1.718 23.131 6.34 39.182 48.435 33.666 107.2 53.408 170.58 53.408s122.15-19.742 170.58-53.406c4.622-16.053 6.34-30.076 6.34-39.184 0-38.019-27.502-57.029-51.578-57.029z" fill="#5ab532"/>
<path d="m472.07 708.09c4.622-16.053 6.34-30.076 6.34-39.184 0-38.021-27.502-57.029-51.578-57.029-29.526 0-57.121 25.91-84.909 45.623-27.787 19.713-40.429 5.678-40.429 5.678s-12.638 14.035-40.426-5.678-55.383-45.623-84.909-45.623c-24.079 0-51.581 19.01-51.581 57.029 0 9.104 1.718 23.131 6.34 39.182" fill="none" stroke="#000" stroke-width="3"/>
<path d="m369.93 633.42c0-37.795-30.641-68.436-68.438-68.436-37.793 0-68.435 30.641-68.435 68.436s53.732 127.95 68.435 127.95c14.702 0 68.438-90.154 68.438-127.95z" fill="#5ab532" stroke="#000" stroke-width="3"/>
<rect x="1.5" y="303.5" width="600" height="127" fill="#2b5df2"/>
<line x1="601.5" x2="1.5" y1="303.5" y2="303.5" fill="none" stroke="#000" stroke-width="3"/>
<line x1="1.5" x2="601.5" y1="430.5" y2="430.5" fill="none" stroke="#000" stroke-width="3"/>
<path d="m266.61 315.61c22.62 19.757 48.081 51.533 48.081 73.435 0 18.671-13.285 47.394-16.517 55.653 27.647-8.617 64.271-30.16 64.271-74.683 0-46.677-29.083-71.451-49.549-88.686-20.466-17.234-38.778-36.624-38.778-61.757 0-17.234 15.438-29.441 20.825-29.441 5.386 0 13.645 12.566 39.854 12.566 26.211 0 66.424-22.979 56.371-52.78-5.206 6.238-15.438 13.284-25.133 13.284-12.926 0-57.808-29.801-57.808-29.801s-23.339 23.697-45.241 51.703-29.442 51.703-29.442 64.27c1e-3 26.212 11.146 47.092 33.066 66.237zm99.783-16.328s35.188 29.083 35.188 75.042c0 43.446-29.442 93.712-93.354 93.712-67.144 0-118.39-72.888-120.64-137.88-1.765-51.007 9.156-80.158 16.157-92.635-12.208 6.822-63.193 42.099-63.193 104.57 0 84.825 73.695 154.3 167.68 154.3 84.287 0 136.08-76.478 136.08-127.1 0-54.396-57.089-70.015-77.914-70.015z" fill="#fcef3c" stroke="#000" stroke-miterlimit="16" stroke-width="3"/>
</g>
<g>
<path d="m1.5 1.5v458.87c0 166.31 134.31 301.13 300 301.13 165.69 0 300-134.82 300-301.13v-458.87h-600z" fill="url(#a)"/>
<path d="m1.5 1.5v458.87c0 166.31 134.31 301.13 300 301.13 165.69 0 300-134.82 300-301.13v-458.87h-600z" fill="none" stroke="#000" stroke-width="3"/>
</g>
</svg>

<?xml version="1.0" encoding="UTF-8" standalone="no"?>
<svg
   xmlns:dc="http://purl.org/dc/elements/1.1/"
   xmlns:cc="http://creativecommons.org/ns#"
   xmlns:rdf="http://www.w3.org/1999/02/22-rdf-syntax-ns#"
   xmlns:svg="http://www.w3.org/2000/svg"
   xmlns="http://www.w3.org/2000/svg"
   xmlns:xlink="http://www.w3.org/1999/xlink"
   xmlns:sodipodi="http://sodipodi.sourceforge.net/DTD/sodipodi-0.dtd"
   xmlns:inkscape="http://www.inkscape.org/namespaces/inkscape"
   height="763"
   width="603"
   version="1.0"
   id="svg20"
   sodipodi:version="0.32"
   inkscape:version="0.46"
   sodipodi:docname="Grancy-coat_of_arms.svg"
   sodipodi:docbase="C:\Documents and Settings\Steve\Bureau\Blason Villages Suisse pour Wikipédia (par Delta-9)"
   inkscape:output_extension="org.inkscape.output.svg.inkscape">
  <metadata
     id="metadata31">
    <rdf:RDF>
      <cc:Work
         rdf:about="">
        <dc:format>image/svg+xml</dc:format>
        <dc:type
           rdf:resource="http://purl.org/dc/dcmitype/StillImage" />
        <dc:date>07-AUG-2006</dc:date>
        <dc:creator>
          <cc:Agent>
            <dc:title>Jérôme BLUM (wagner51)</dc:title>
          </cc:Agent>
        </dc:creator>
        <cc:license
           rdf:resource="http://creativecommons.org/licenses/GPL/2.0/" />
        <dc:coverage />
        <dc:description>Gabarit pour le Projet:Blasons de WIkipédia</dc:description>
        <dc:subject>
          <rdf:Bag>
            <rdf:li>blason suisse modèle gabarit projet blasons</rdf:li>
          </rdf:Bag>
        </dc:subject>
        <dc:language>fr</dc:language>
        <dc:title>Gabrit d'un blason suisse</dc:title>
      </cc:Work>
      <cc:License
         rdf:about="http://creativecommons.org/licenses/GPL/2.0/">
        <cc:permits
           rdf:resource="http://web.resource.org/cc/Reproduction" />
        <cc:permits
           rdf:resource="http://web.resource.org/cc/Distribution" />
        <cc:requires
           rdf:resource="http://web.resource.org/cc/Notice" />
        <cc:permits
           rdf:resource="http://web.resource.org/cc/DerivativeWorks" />
        <cc:requires
           rdf:resource="http://web.resource.org/cc/ShareAlike" />
        <cc:requires
           rdf:resource="http://web.resource.org/cc/SourceCode" />
      </cc:License>
    </rdf:RDF>
  </metadata>
  <defs
     id="defs29"><inkscape:perspective
   sodipodi:type="inkscape:persp3d"
   inkscape:vp_x="0 : 381.5 : 1"
   inkscape:vp_y="0 : 1000 : 0"
   inkscape:vp_z="603 : 381.5 : 1"
   inkscape:persp3d-origin="301.5 : 254.33333 : 1"
   id="perspective28" />
<linearGradient
   id="linearGradient2893">
  <stop
     style="stop-color:#ffffff;stop-opacity:0.3137255;"
     offset="0"
     id="stop2895" />
  <stop
     id="stop2897"
     offset="0.19"
     style="stop-color:#ffffff;stop-opacity:0.25098041;" />
  <stop
     style="stop-color:#6b6b6b;stop-opacity:0.1254902;"
     offset="0.60000002"
     id="stop2901" />
  <stop
     style="stop-color:#000000;stop-opacity:0.1254902;"
     offset="1"
     id="stop2899" />
</linearGradient>
<linearGradient
   id="linearGradient2955">
  <stop
     style="stop-color:white;stop-opacity:0;"
     offset="0"
     id="stop2965" />
  <stop
     style="stop-color:black;stop-opacity:0.64583331;"
     offset="1"
     id="stop2959" />
</linearGradient>
<radialGradient
   inkscape:collect="always"
   xlink:href="#linearGradient2893"
   id="radialGradient3236"
   gradientUnits="userSpaceOnUse"
   gradientTransform="matrix(1.215027,1.531577e-24,1.464684e-23,1.266667,-839.1924,-490.4894)"
   cx="858.04236"
   cy="579.93323"
   fx="858.04236"
   fy="579.93323"
   r="300" />
<inkscape:perspective
   id="perspective2484"
   inkscape:persp3d-origin="297.63751 : 280.63 : 1"
   inkscape:vp_z="595.27502 : 420.94501 : 1"
   inkscape:vp_y="0 : 1000 : 0"
   inkscape:vp_x="0 : 420.94501 : 1"
   sodipodi:type="inkscape:persp3d" />

	
	
	

	

		
		
		
	
		
		
		
	</defs>
  <sodipodi:namedview
     inkscape:window-height="968"
     inkscape:window-width="1280"
     inkscape:pageshadow="2"
     inkscape:pageopacity="0.0"
     guidetolerance="10.0"
     gridtolerance="10.0"
     objecttolerance="10.0"
     borderopacity="1.0"
     bordercolor="#666666"
     pagecolor="#ffffff"
     id="base"
     inkscape:zoom="0.97179107"
     inkscape:cx="315.00905"
     inkscape:cy="375.16153"
     inkscape:window-x="1280"
     inkscape:window-y="22"
     inkscape:current-layer="layer2"
     showgrid="false"
     showguides="true"
     inkscape:guide-bbox="true">
    <sodipodi:guide
       orientation="horizontal"
       position="761.5"
       id="guide1885" />
    <sodipodi:guide
       orientation="vertical"
       position="1.5"
       id="guide1887" />
    <sodipodi:guide
       orientation="horizontal"
       position="1.5"
       id="guide1889" />
    <sodipodi:guide
       orientation="vertical"
       position="601.5"
       id="guide1891" />
    <sodipodi:guide
       orientation="vertical"
       position="301.50081"
       id="guide1893" />
  </sodipodi:namedview>
  <desc
     id="desc22">Coat of Arms of Canton of Freiburg (Fribourg)</desc>
  <g
     inkscape:groupmode="layer"
     id="layer1"
     inkscape:label="Fond écu"
     style="opacity:1;display:inline"
     sodipodi:insensitive="true">
    <path
       d="M 1.5,1.5 L 1.5,460.369 C 1.5,626.68 135.814,761.5 301.5,761.5 C 467.188,761.5 601.5,626.68 601.5,460.369 L 601.5,1.5 L 1.5,1.5 z"
       id="path2595"
       style="opacity:1;fill:#ffffff;display:inline" />
  </g>
  <g
     inkscape:groupmode="layer"
     id="layer2"
     inkscape:label="Meubles"
     style="opacity:1;display:inline"
     sodipodi:insensitive="true">
    <g
       id="g2540">
      <path
         d="M 426.835,611.88 C 397.309,611.88 369.714,637.79 341.926,657.503 C 314.139,677.216 301.497,663.181 301.497,663.181 C 301.497,663.181 288.859,677.216 261.071,657.503 C 233.283,637.79 205.688,611.88 176.162,611.88 C 152.083,611.88 124.581,630.89 124.581,668.909 C 124.581,678.013 126.299,692.04 130.921,708.091 C 179.356,741.757 238.125,761.499 301.497,761.499 C 364.869,761.499 423.643,741.757 472.073,708.093 C 476.695,692.04 478.413,678.017 478.413,668.909 C 478.413,630.89 450.911,611.88 426.835,611.88 z"
         id="path2598"
         style="fill:#5ab532" />
      <path
         d="M 472.073,708.093 C 476.695,692.04 478.413,678.017 478.413,668.909 C 478.413,630.888 450.911,611.88 426.835,611.88 C 397.309,611.88 369.714,637.79 341.926,657.503 C 314.139,677.216 301.497,663.181 301.497,663.181 C 301.497,663.181 288.859,677.216 261.071,657.503 C 233.283,637.79 205.688,611.88 176.162,611.88 C 152.083,611.88 124.581,630.89 124.581,668.909 C 124.581,678.013 126.299,692.04 130.921,708.091"
         id="path2600"
         style="fill:none;stroke:#000000;stroke-width:3" />
      <path
         d="M 369.934,633.425 C 369.934,595.63 339.293,564.989 301.496,564.989 C 263.703,564.989 233.061,595.63 233.061,633.425 C 233.061,671.22 286.793,761.374 301.496,761.374 C 316.198,761.374 369.934,671.22 369.934,633.425 z"
         id="path2602"
         style="fill:#5ab532;stroke:#000000;stroke-width:3" />
    </g>
    <g
       id="g2535">
      <rect
         height="127"
         width="600"
         y="303.50003"
         x="1.4999965"
         id="rect2490"
         style="fill:#2b5df2" />
      <line
         y2="303.50003"
         x2="1.4999965"
         y1="303.50003"
         x1="601.50006"
         id="line2502"
         style="fill:none;stroke:#000000;stroke-width:3" />
      <line
         y2="430.49902"
         x2="601.50006"
         y1="430.49902"
         x1="1.4999965"
         id="line2504"
         style="fill:none;stroke:#000000;stroke-width:3" />
    </g>
    <g
       id="g2532">
      <path
         style="fill:#fcef3c;stroke:#000000;stroke-width:3;stroke-miterlimit:16"
         stroke-miterlimit="16"
         d="M 266.614,315.609 C 289.234,335.366 314.695,367.142 314.695,389.044 C 314.695,407.715 301.41,436.438 298.178,444.697 C 325.825,436.08 362.449,414.537 362.449,370.014 C 362.449,323.337 333.366,298.563 312.9,281.328 C 292.434,264.094 274.122,244.704 274.122,219.571 C 274.122,202.337 289.56,190.13 294.947,190.13 C 300.333,190.13 308.592,202.696 334.801,202.696 C 361.012,202.696 401.225,179.717 391.172,149.916 C 385.966,156.154 375.734,163.2 366.039,163.2 C 353.113,163.2 308.231,133.399 308.231,133.399 C 308.231,133.399 284.892,157.096 262.99,185.102 C 241.088,213.108 233.548,236.805 233.548,249.372 C 233.549,275.584 244.694,296.464 266.614,315.609 z M 366.397,299.281 C 366.397,299.281 401.585,328.364 401.585,374.323 C 401.585,417.769 372.143,468.035 308.231,468.035 C 241.087,468.035 189.839,395.147 187.59,330.159 C 185.825,279.152 196.746,250.001 203.747,237.524 C 191.539,244.346 140.554,279.623 140.554,342.098 C 140.554,426.923 214.249,496.4 308.231,496.4 C 392.518,496.4 444.311,419.922 444.311,369.296 C 444.311,314.9 387.222,299.281 366.397,299.281 z"
         id="path2477" />
    </g>
  </g>
  <g
     inkscape:groupmode="layer"
     id="layer3"
     inkscape:label="Reflet final"
     style="display:inline"
     sodipodi:insensitive="true">
    <path
       style="fill:url(#radialGradient3236);fill-opacity:1"
       d="M 1.5,1.5 L 1.5,460.3679 C 1.5,626.67854 135.81454,761.5 301.49993,761.5 C 467.1854,761.5 601.5,626.67854 601.5,460.3679 L 601.5,1.5 L 1.5,1.5 z"
       id="path2346" />
  </g>
  <g
     inkscape:groupmode="layer"
     id="layer4"
     inkscape:label="Contour final"
     style="display:inline"
     sodipodi:insensitive="true">
    <path
       style="fill:none;fill-opacity:1;stroke:#000000;stroke-width:3;stroke-miterlimit:4;stroke-dasharray:none;stroke-opacity:1"
       d="M 1.5,1.5 L 1.5,460.36794 C 1.5,626.67854 135.81454,761.5 301.49993,761.5 C 467.1854,761.5 601.5,626.67854 601.5,460.36794 L 601.5,1.5 L 1.5,1.5 z"
       id="path3239" />
  </g>
</svg>
